X:5978
T:Gan Ainm
R:jig
S:Natalie McMaster
H:
N:
D:Solo Album #1
Z:Adrian Scahill
M:6/8
L:1/8
K:C
EFE EDE|cdc cde|GAG EFG|FEF DEF|\
EFE EDE|cdc edc|Bcd fed|c3 c3:||\
gag ged|cdc cde|gag gec|B2d def|\
gec dcd|edc AGF|EFG fed|c3 c3:||
